X:1
T:Title
%%score { ( 1 4 ) | ( 2 3 ) }
L:1/8
Q:1/4=100
M:3/4
K:Ab
V:1 treble nm="Grand Piano"
V:4 treble 
V:2 bass 
V:3 bass 
V:1
 [A,CE]2 [A,C]2 [A,CE]2 | [CA]4 [EA]2 | [FA]2 [EG]2 [DF]2 | [DF]4 [CE]2 | [A,C]2 [CE]2 [CEA]2 | %5
w: J.~H.~Ruebush * *|||||
 [Ec]4 [CA]2 | A2 z2 z2 | [EB]6 | [Ec]2 [=D_c]2 [E=c]2 | [Fd]4 [Ec]2 | [Ec]2 [DB]2 [EA]2 | %11
w: ||||||
 [FB]4 [DF]2 | [FA]2 G2 F2 | E4 A2 | G2 A2 B2 | [CA]6 | [A,CE]2 [A,C]2 [A,CE]2 | [CA]4 [EA]2 | %18
w: |||||||
 [FA]2 [EG]2 [DF]2 | [DF]4 [CE]2 | [A,C]2 [CE]2 [CEA]2 | [Ec]4 [CA]2 | A2 z2 z2 | [EB]6 | %24
w: ||||||
 [Ec]2 [=D_c]2 [E=c]2 | [Fd]4 [Ec]2 | [Ec]2 [DB]2 [EA]2 | [FB]4 [DF]2 | [FA]2 G2 F2 | E4 A2 | %30
w: ||||||
 G2 A2 B2 | [CA]6 |] %32
w: ||
V:2
 z2 E,2 A,,2 | [A,,E,]4 [C,A,]2 | [D,A,]4 [D,A,]2 | [A,,A,]4 [A,,A,]2 | E,2 A,2 A,,2 | %5
 [A,,A,]4 [A,,A,]2 | z2 G2 B,,2 | [E,G,]6 | [A,,A,]4 [A,,A,]2 | [A,,A,]4 [A,,A,]2 | %10
 [A,,A,]2 [B,,G,]2 [C,A,]2 | [D,A,]4 [D,A,]2 | z2 E2 [=D,A,_C]2 | [E,A,C]4 [E,A,C]2 | %14
 B,2 C2 [E,D]2 | [A,,E,]6 | z2 E,2 A,,2 | [A,,E,]4 [C,A,]2 | [D,A,]4 [D,A,]2 | [A,,A,]4 [A,,A,]2 | %20
 E,2 A,2 A,,2 | [A,,A,]4 [A,,A,]2 | z2 G2 B,,2 | [E,G,]6 | [A,,A,]4 [A,,A,]2 | [A,,A,]4 [A,,A,]2 | %26
 [A,,A,]2 [B,,G,]2 [C,A,]2 | [D,A,]4 [D,A,]2 | z2 E2 [=D,A,_C]2 | [E,A,C]4 [E,A,C]2 | %30
 B,2 C2 [E,D]2 | [A,,E,]6 |] %32
V:3
 A,,4 z2 | x6 | x6 | x6 | A,,4 z2 | x6 | B,,4 z2 | x6 | x6 | x6 | x6 | x6 | [D,A,]4 z2 | x6 | %14
 E,4 z2 | x6 | A,,4 z2 | x6 | x6 | x6 | A,,4 z2 | x6 | B,,4 z2 | x6 | x6 | x6 | x6 | x6 | %28
 [D,A,]4 z2 | x6 | E,4 z2 | x6 |] %32
V:4
 x6 | x6 | x6 | x6 | x6 | x6 | [A,=D]4 [A,DA]2 | x6 | x6 | x6 | x6 | x6 | x6 | x6 | x6 | x6 | x6 | %17
 x6 | x6 | x6 | x6 | x6 | [A,=D]4 [A,DA]2 | x6 | x6 | x6 | x6 | x6 | x6 | x6 | x6 | x6 |] %32

